X:64
T:The Milk-Mayds Bobb.
T:John Malchair's Third Collection of Tunes
%%VWML:Malchair-3619-p64
F:https://www.vwml.org/record/Malchair/3619/p64
F:www.vwml.org/topics/historic-dance-and-tune-books/Malchair
Z:Eric Conrad Feb 2020
% Older notation - stemless black notes are half notes
M:C    % marked as common time but barred as 6/4
L:1/4
K:G
ddd ddB | cAc B2G | dde f>ga | geg f2d ||
dgd e>cA | ege f>ed | dgd g>ab | ba>g g3 |]
W:% Using this W: as a space between tunes
T:Winifreds Knot - or -
T:Open the door to three.
T:John Malchair's Third Collection of Tunes
F:https://www.vwml.org/record/Malchair/3619/p64
F:www.vwml.org/topics/historic-dance-and-tune-books/Malchair
% Z:Eric Conrad Feb 2020
% Modern notation apart from the strange time signature.
M:6/4   % Marked in original as "C 6/4"
L:1/4
W:See coll-2d. p.6.
W:This is best and as in Ed. 1605.
K:G
D | G2G B>cB | A2D G2G | B>cB c2c | d2d d>cB | A2D G>AG | BA2 G2 |]
W:% Using this W: as a space between tunes
T:Up tails all.
T:John Malchair's Third Collection of Tunes
F:https://www.vwml.org/record/Malchair/3619/p64
F:www.vwml.org/topics/historic-dance-and-tune-books/Malchair
% Z:Eric Conrad Feb 2020
M:C|
L:1/8
W:again - coll. 2. p.58.70.
K:G
d2 | d4 B2AB | c2c2 A2A2 | d2d2 B3c | d6e2 |
d4 B4 | c4 A4 | d4 D4 | G6 |]
W:% Using this W: as a space between tunes
T:If all the world ware paper.
T:John Malchair's Third Collection of Tunes
F:https://www.vwml.org/record/Malchair/3619/p64
F:www.vwml.org/topics/historic-dance-and-tune-books/Malchair
% Z:Eric Conrad Feb 2020
M:6/4
L:1/4
W:Duplication coll.2d. p.35 - and p.?7. % the second page number is unclear in MS.
K:C
G | A2G A2B | c3 D2D | E2D E2F | G3- G2E |
F2E F2G | AF2 C2c | d2G A2B | c3- c2 |]
W:% Using this W: as a space between tunes
T:Tom Tinker.
T:John Malchair's Third Collection of Tunes
F:https://www.vwml.org/record/Malchair/3619/p64
F:www.vwml.org/topics/historic-dance-and-tune-books/Malchair
% Z:Eric Conrad Feb 2020
M:3/4   % But barred as 6/4
L:1/8
W:Same as Ed. 1665 except the third note - which is F.
W:Tom Tinker - a different tune See coll.2nd. p.65
W:In Ed. of 1695 - this tune has no more than the repetition of the first strain by way of the second.
K:D
d2 | d2.e2d2 [|] e2g2Bc | d2c3B [|] A4g2 | f3efg [|] a2f2d2 | e2c2A2 [|] d4 ||
d2 | e2f4 [|] e2g4 | d2c3B [|] A4g2 | f3efg [|] a2f2d2 | e2c2A2 [|] d4 |]



